images/badges/15.svg

<?xml version="1.0" encoding="UTF-8" standalone="no"?>
<!-- Created with Inkscape (http://www.inkscape.org/) -->

<svg
   width="32"
   height="32"
   viewBox="0 0 32 32"
   version="1.1"
   id="svg5"
   inkscape:version="1.2.1 (9c6d41e410, 2022-07-14)"
   sodipodi:docname="challenge.svg"
   xmlns:inkscape="http://www.inkscape.org/namespaces/inkscape"
   xmlns:sodipodi="http://sodipodi.sourceforge.net/DTD/sodipodi-0.dtd"
   xmlns:xlink="http://www.w3.org/1999/xlink"
   xmlns="http://www.w3.org/2000/svg"
   xmlns:svg="http://www.w3.org/2000/svg">
  <sodipodi:namedview
     id="namedview7"
     pagecolor="#ffffff"
     bordercolor="#000000"
     borderopacity="0.25"
     inkscape:showpageshadow="2"
     inkscape:pageopacity="0.0"
     inkscape:pagecheckerboard="0"
     inkscape:deskcolor="#d1d1d1"
     inkscape:document-units="px"
     showgrid="false"
     inkscape:zoom="8"
     inkscape:cx="-6"
     inkscape:cy="9.375"
     inkscape:window-width="1560"
     inkscape:window-height="874"
     inkscape:window-x="40"
     inkscape:window-y="26"
     inkscape:window-maximized="1"
     inkscape:current-layer="layer2" />
  <defs
     id="defs2">
    <inkscape:path-effect
       effect="powerclip"
       id="path-effect2000"
       is_visible="true"
       lpeversion="1"
       inverse="true"
       flatten="false"
       hide_clip="false"
       message="Use fill-rule evenodd on &lt;b&gt;fill and stroke&lt;/b&gt; dialog if no flatten result after convert clip to paths." />
    <inkscape:path-effect
       effect="powermask"
       id="path-effect2178"
       is_visible="true"
       lpeversion="1"
       uri="#mask-powermask-path-effect2178"
       invert="false"
       hide_mask="false"
       background="true"
       background_color="#ffffffff" />
    <inkscape:path-effect
       effect="powermask"
       id="path-effect2157"
       is_visible="true"
       lpeversion="1"
       uri="#mask-powermask-path-effect2157"
       invert="false"
       hide_mask="false"
       background="true"
       background_color="#ffffffff" />
    <inkscape:path-effect
       effect="powermask"
       id="path-effect2130"
       is_visible="true"
       lpeversion="1"
       uri="#mask-powermask-path-effect2130"
       invert="false"
       hide_mask="false"
       background="true"
       background_color="#ffffffff" />
    <inkscape:path-effect
       effect="powerclip"
       id="path-effect1229"
       is_visible="true"
       lpeversion="1"
       inverse="true"
       flatten="false"
       hide_clip="false"
       message="Use fill-rule evenodd on &lt;b&gt;fill and stroke&lt;/b&gt; dialog if no flatten result after convert clip to paths." />
    <inkscape:path-effect
       effect="bspline"
       id="path-effect1405"
       is_visible="true"
       lpeversion="1"
       weight="33.333333"
       steps="2"
       helper_size="0"
       apply_no_weight="true"
       apply_with_weight="true"
       only_selected="false" />
    <linearGradient
       inkscape:collect="always"
       id="linearGradient925">
      <stop
         style="stop-color:#7a7422;stop-opacity:1;"
         offset="0"
         id="stop921" />
      <stop
         style="stop-color:#f03838;stop-opacity:1;"
         offset="1"
         id="stop923" />
    </linearGradient>
    <linearGradient
       inkscape:collect="always"
       xlink:href="#linearGradient925"
       id="linearGradient927"
       x1="0"
       y1="16"
       x2="32"
       y2="16"
       gradientUnits="userSpaceOnUse"
       gradientTransform="translate(-10.143594,5.8564053)" />
    <clipPath
       clipPathUnits="userSpaceOnUse"
       id="clipPath1219">
      <g
         id="g1227"
         style="display:block">
        <rect
           style="fill:#000000;stroke:none;stroke-width:18.5154;stroke-linecap:round;stroke-linejoin:round"
           id="rect1221"
           width="2.9801893"
           height="3.0530891"
           x="7.6381598"
           y="12.185005" />
        <rect
           style="fill:#000000;stroke:none;stroke-width:18.5154;stroke-linecap:round;stroke-linejoin:round"
           id="rect1223"
           width="2.9801893"
           height="3.0530891"
           x="12.770882"
           y="12.185005" />
        <rect
           style="fill:#000000;stroke:none;stroke-width:30.5492;stroke-linecap:round;stroke-linejoin:round"
           id="rect1225"
           width="8.1129112"
           height="3.0530891"
           x="7.6381598"
           y="16.283831" />
      </g>
    </clipPath>
    <clipPath
       clipPathUnits="userSpaceOnUse"
       id="clipPath1219-3">
      <g
         id="g1227-5"
         style="display:none">
        <rect
           style="fill:#000000;stroke:none;stroke-width:18.5154;stroke-linecap:round;stroke-linejoin:round"
           id="rect1221-6"
           width="2.9801893"
           height="3.0530891"
           x="7.6381598"
           y="12.185005"
           d="m 7.6381598,12.185005 h 2.9801892 v 3.053089 H 7.6381598 Z" />
        <rect
           style="fill:#000000;stroke:none;stroke-width:18.5154;stroke-linecap:round;stroke-linejoin:round"
           id="rect1223-2"
           width="2.9801893"
           height="3.0530891"
           x="12.770882"
           y="12.185005"
           d="m 12.770882,12.185005 h 2.980189 v 3.053089 h -2.980189 z" />
        <rect
           style="fill:#000000;stroke:none;stroke-width:30.5492;stroke-linecap:round;stroke-linejoin:round"
           id="rect1225-9"
           width="8.1129112"
           height="3.0530891"
           x="7.6381598"
           y="16.283831"
           d="M 7.6381598,16.283831 H 15.751071 V 19.33692 H 7.6381598 Z" />
      </g>
      <path
         id="lpe_path-effect1229-1"
         class="powerclip"
         d="M 0.97999477,4.430975 H 22.594233 V 26.045213 H 0.97999477 Z m 6.65816503,7.75403 v 3.053089 h 2.9801892 v -3.053089 z m 5.1327222,0 v 3.053089 h 2.980189 v -3.053089 z m -5.1327222,4.098826 v 3.053089 h 8.1129112 v -3.053089 z" />
    </clipPath>
    <inkscape:path-effect
       effect="powerclip"
       id="path-effect1229-2"
       is_visible="true"
       lpeversion="1"
       inverse="true"
       flatten="false"
       hide_clip="false"
       message="Use fill-rule evenodd on &lt;b&gt;fill and stroke&lt;/b&gt; dialog if no flatten result after convert clip to paths." />
    <clipPath
       clipPathUnits="userSpaceOnUse"
       id="clipath_lpe_path-effect1229-2">
      <g
         id="g1395"
         style="display:block">
        <rect
           style="fill:#000000;stroke:none;stroke-width:18.5154;stroke-linecap:round;stroke-linejoin:round"
           id="rect1389"
           width="2.9801893"
           height="3.0530891"
           x="7.6381598"
           y="12.185005" />
        <rect
           style="fill:#000000;stroke:none;stroke-width:18.5154;stroke-linecap:round;stroke-linejoin:round"
           id="rect1391"
           width="2.9801893"
           height="3.0530891"
           x="12.770882"
           y="12.185005" />
        <rect
           style="fill:#000000;stroke:none;stroke-width:30.5492;stroke-linecap:round;stroke-linejoin:round"
           id="rect1393"
           width="8.1129112"
           height="3.0530891"
           x="7.6381598"
           y="16.283831" />
      </g>
    </clipPath>
    <clipPath
       clipPathUnits="userSpaceOnUse"
       id="clipPath1219-36">
      <g
         id="g1227-0"
         style="display:none">
        <rect
           style="fill:#000000;stroke:none;stroke-width:18.5154;stroke-linecap:round;stroke-linejoin:round"
           id="rect1221-62"
           width="2.9801893"
           height="3.0530891"
           x="7.6381598"
           y="12.185005"
           d="m 7.6381598,12.185005 h 2.9801892 v 3.053089 H 7.6381598 Z" />
        <rect
           style="fill:#000000;stroke:none;stroke-width:18.5154;stroke-linecap:round;stroke-linejoin:round"
           id="rect1223-6"
           width="2.9801893"
           height="3.0530891"
           x="12.770882"
           y="12.185005"
           d="m 12.770882,12.185005 h 2.980189 v 3.053089 h -2.980189 z" />
        <rect
           style="fill:#000000;stroke:none;stroke-width:30.5492;stroke-linecap:round;stroke-linejoin:round"
           id="rect1225-1"
           width="8.1129112"
           height="3.0530891"
           x="7.6381598"
           y="16.283831"
           d="M 7.6381598,16.283831 H 15.751071 V 19.33692 H 7.6381598 Z" />
      </g>
      <path
         id="lpe_path-effect1229"
         class="powerclip"
         d="M 0.97999477,4.430975 H 22.594233 V 26.045213 H 0.97999477 Z m 6.65816503,7.75403 v 3.053089 h 2.9801892 v -3.053089 z m 5.1327222,0 v 3.053089 h 2.980189 v -3.053089 z m -5.1327222,4.098826 v 3.053089 h 8.1129112 v -3.053089 z" />
    </clipPath>
    <inkscape:path-effect
       effect="powerclip"
       id="path-effect1229-8"
       is_visible="true"
       lpeversion="1"
       inverse="true"
       flatten="false"
       hide_clip="false"
       message="Use fill-rule evenodd on &lt;b&gt;fill and stroke&lt;/b&gt; dialog if no flatten result after convert clip to paths." />
    <clipPath
       clipPathUnits="userSpaceOnUse"
       id="clipath_lpe_path-effect1229-8">
      <g
         id="g1501"
         style="display:block">
        <rect
           style="fill:#000000;stroke:none;stroke-width:18.5154;stroke-linecap:round;stroke-linejoin:round"
           id="rect1495"
           width="2.9801893"
           height="3.0530891"
           x="7.6381598"
           y="12.185005" />
        <rect
           style="fill:#000000;stroke:none;stroke-width:18.5154;stroke-linecap:round;stroke-linejoin:round"
           id="rect1497"
           width="2.9801893"
           height="3.0530891"
           x="12.770882"
           y="12.185005" />
        <rect
           style="fill:#000000;stroke:none;stroke-width:30.5492;stroke-linecap:round;stroke-linejoin:round"
           id="rect1499"
           width="8.1129112"
           height="3.0530891"
           x="7.6381598"
           y="16.283831" />
      </g>
    </clipPath>
    <mask
       maskUnits="userSpaceOnUse"
       id="mask-powermask-path-effect2130">
      <rect
         style="fill:#000000;stroke:#000000;stroke-width:1.30049;stroke-linecap:round;stroke-linejoin:round;stroke-dasharray:none"
         id="rect2128"
         width="15.49951"
         height="3.796385"
         x="14.877663"
         y="-1.8981922"
         transform="rotate(45)" />
    </mask>
    <mask
       maskUnits="userSpaceOnUse"
       id="mask-powermask-path-effect2157">
      <rect
         style="fill:#000000;stroke:#000000;stroke-width:1.30049;stroke-linecap:round;stroke-linejoin:round;stroke-dasharray:none"
         id="rect2155"
         width="15.49951"
         height="3.796385"
         x="-7.7497549"
         y="20.729225"
         transform="matrix(-0.70710678,0.70710678,0.70710678,0.70710678,0,0)" />
    </mask>
    <mask
       maskUnits="userSpaceOnUse"
       id="mask-powermask-path-effect2178">
      <rect
         style="fill:#000000;stroke:#000000;stroke-width:1.16758;stroke-linecap:round;stroke-linejoin:round;stroke-dasharray:none"
         id="rect2176"
         width="13.996881"
         height="0.83844292"
         x="9.0015593"
         y="6.6039953" />
    </mask>
    <clipPath
       clipPathUnits="userSpaceOnUse"
       id="clipPath1996">
      <path
         style="display:none;fill:#ff0e0e;fill-opacity:1;stroke-width:1.53179;stroke-linecap:round;stroke-linejoin:round"
         d="M 15.891675,6.0031427 15.11714,3.0493984 15.891675,0.09565329 v 0 h 0.288294 V 6.0031427 Z"
         id="path1998" />
      <path
         id="lpe_path-effect2000"
         style="fill:#ff0e0e;fill-opacity:1;stroke-width:1.53179;stroke-linecap:round;stroke-linejoin:round"
         class="powerclip"
         d="M 5.7756391,-4.9043468 H 20.891675 V 11.003143 H 5.7756391 Z M 15.891675,6.0031427 h 0.288294 V 0.09565329 h -0.288294 v 0 L 15.11714,3.0493984 Z" />
    </clipPath>
  </defs>
  <g
     inkscape:label="Vrstva 1"
     inkscape:groupmode="layer"
     id="layer1">
    <circle
       style="fill:url(#linearGradient927);fill-opacity:1;stroke-width:10.519;stroke-linecap:round"
       id="path234"
       cx="5.8564062"
       cy="21.856407"
       r="16"
       transform="rotate(-30)" />
  </g>
  <g
     inkscape:groupmode="layer"
     id="layer2"
     inkscape:label="Vrstva 2">
    <path
       sodipodi:type="star"
       style="fill:#ffffff;stroke-width:2.296;stroke-linecap:round;stroke-linejoin:round"
       id="path455"
       inkscape:flatsided="false"
       sodipodi:sides="3"
       sodipodi:cx="14.18633"
       sodipodi:cy="3.0493979"
       sodipodi:r1="3.4106908"
       sodipodi:r2="1.7053456"
       sodipodi:arg1="1.0471976"
       sodipodi:arg2="2.0943951"
       inkscape:rounded="3.469447e-18"
       inkscape:randomized="0"
       d="m 15.891675,6.0031429 -2.558018,-1.4768723 -2.558018,-1.4768728 2.558018,-1.4768725 2.558018,-1.47687214 0,2.95374474 z"
       transform="matrix(0,-1.6659725,1.6659725,0,10.919787,29.269082)"
       inkscape:transform-center-y="1.2595365" />
    <path
       sodipodi:type="star"
       style="fill:#ffffff;stroke-width:2.296;stroke-linecap:round;stroke-linejoin:round"
       id="path455-3"
       inkscape:flatsided="false"
       sodipodi:sides="3"
       sodipodi:cx="14.18633"
       sodipodi:cy="3.0493979"
       sodipodi:r1="3.4106908"
       sodipodi:r2="1.7053456"
       sodipodi:arg1="1.0471976"
       sodipodi:arg2="2.0943951"
       inkscape:rounded="3.469447e-18"
       inkscape:randomized="0"
       d="m 15.891675,6.0031429 -2.558018,-1.4768723 -2.558018,-1.4768728 2.558018,-1.4768725 2.558018,-1.47687214 0,2.95374474 z"
       transform="matrix(0,1.6659725,1.6659725,0,10.919787,2.977168)"
       inkscape:transform-center-y="-1.2595365" />
    <path
       sodipodi:type="star"
       style="fill:#ffffff;stroke-width:2.296;stroke-linecap:round;stroke-linejoin:round"
       id="path455-6"
       inkscape:flatsided="false"
       sodipodi:sides="3"
       sodipodi:cx="14.18633"
       sodipodi:cy="3.0493979"
       sodipodi:r1="3.4106908"
       sodipodi:r2="1.7053456"
       sodipodi:arg1="1.0471976"
       sodipodi:arg2="2.0943951"
       inkscape:rounded="3.469447e-18"
       inkscape:randomized="0"
       d="m 15.891675,6.0031429 -2.558018,-1.4768723 -2.558018,-1.4768728 2.558018,-1.4768725 2.558018,-1.47687214 0,2.95374474 z"
       transform="matrix(-1.6659725,0,0,-1.3485788,46.89567,20.112354)"
       inkscape:transform-center-x="-1.2595364"
       clip-path="url(#clipPath1996)"
       inkscape:path-effect="#path-effect2000" />
    <g
       id="g1250"
       transform="matrix(1.6932417,0,0,1.6932417,-16.615126,-11.091868)">
      <path
         style="fill:#ffffff;stroke-width:2.296;stroke-linecap:round;stroke-linejoin:round"
         d="M 22.839664,16.000001 V 15.21875 L 20.920858,14.40625 21.75,16 Z"
         id="path1214" />
      <path
         style="fill:#ffffff;stroke-width:2.296;stroke-linecap:round;stroke-linejoin:round"
         d="m 22.839664,16 v 0.781251 l -1.918806,0.8125 0.829142,-1.59375 z"
         id="path1214-7" />
    </g>
    <rect
       style="fill:#ffffff;fill-opacity:1;stroke-width:2.49054;stroke-linecap:round;stroke-linejoin:round"
       id="rect2110"
       width="18.654682"
       height="2.0978918"
       x="3.0562484"
       y="14.951055"
       rx="0.5"
       ry="0.5" />
  </g>
</svg>

<?xml version="1.0" encoding="UTF-8"?>
<!-- Created with Inkscape (http://www.inkscape.org/) -->
<svg id="svg5" width="32" height="32" version="1.1" viewBox="0 0 32 32" xmlns="http://www.w3.org/2000/svg" xmlns:xlink="http://www.w3.org/1999/xlink">
 <defs id="defs2">
  <linearGradient id="linearGradient927" x2="32" y1="16" y2="16" gradientTransform="translate(-10.144 5.8564)" gradientUnits="userSpaceOnUse">
   <stop id="stop921" stop-color="#7a7422" offset="0"/>
   <stop id="stop923" stop-color="#f03838" offset="1"/>
  </linearGradient>
  <clipPath id="clipPath1996">
   <path id="path1998" d="m15.892 6.0031-0.77454-2.9537 0.77454-2.9537v0h0.28829v5.9075z" display="none" fill="#ff0e0e" stroke-linecap="round" stroke-linejoin="round" stroke-width="1.5318"/>
   <path id="lpe_path-effect2000" class="powerclip" d="m5.7756-4.9043h15.116v15.907h-15.116zm10.116 10.907h0.28829v-5.9075h-0.28829v0l-0.77454 2.9537z" fill="#ff0e0e" stroke-linecap="round" stroke-linejoin="round" stroke-width="1.5318"/>
  </clipPath>
 </defs>
 <g id="layer1">
  <circle id="path234" transform="rotate(-30)" cx="5.8564" cy="21.856" r="16" fill="url(#linearGradient927)" stroke-linecap="round" stroke-width="10.519"/>
 </g>
 <g id="layer2" fill="#fff" stroke-linecap="round" stroke-linejoin="round">
  <path id="path455" transform="matrix(0 -1.666 1.666 0 10.92 29.269)" d="m15.892 6.0031-5.116-2.9537 5.116-2.9537v2.9537z" stroke-width="2.296"/>
  <path id="path455-3" transform="matrix(0 1.666 1.666 0 10.92 2.9772)" d="m15.892 6.0031-5.116-2.9537 5.116-2.9537v2.9537z" stroke-width="2.296"/>
  <path id="path455-6" transform="matrix(-1.666 0 0 -1.3486 46.896 20.112)" d="m15.892 6.0031-5.116-2.9537 5.116-2.9537v2.9537z" clip-path="url(#clipPath1996)" stroke-width="2.296"/>
  <g id="g1250" transform="matrix(1.6932 0 0 1.6932 -16.615 -11.092)" stroke-width="2.296">
   <path id="path1214" d="m22.84 16v-0.78125l-1.9188-0.8125 0.82914 1.5938z"/>
   <path id="path1214-7" d="m22.84 16v0.78125l-1.9188 0.8125 0.82914-1.5938z"/>
  </g>
  <rect id="rect2110" x="3.0562" y="14.951" width="18.655" height="2.0979" rx=".5" ry=".5" stroke-width="2.4905"/>
 </g>
</svg>
